usr/share/icons/biglinux-icons-material/symbolic/actions/insert-image-symbolic.svg

<svg width="16" height="16" version="1.1" xmlns="http://www.w3.org/2000/svg">
 <path d="m5 12 3 4 3-4z" fill="#363636"/>
 <path d="m6.5 3-2.5 2.5v2.5h8v-2l-1.25-1.25-1.25 1.25z" color="#000000" fill="#363636" overflow="visible"/>
 <path d="m4 1c-1.108 0-2 0.892-2 2v5c0 1.108 0.892 2 2 2h8c1.108 0 2-0.892 2-2v-5c0-1.108-0.892-2-2-2h-8zm0 1h8c0.554 0 1 0.446 1 1v5c0 0.554-0.446 1-1 1h-8c-0.554 0-1-0.446-1-1v-5c0-0.554 0.446-1 1-1z" fill="#333333" stroke-linecap="round" stroke-linejoin="round" stroke-opacity=".25" stroke-width="1.0016" style="paint-order:markers stroke fill"/>
</svg>

<svg xmlns="http://www.w3.org/2000/svg" width="16" height="16"><path fill="#dedede" d="m5 12 3 4 3-4z"/><path fill="#dedede" d="M6.5 3 4 5.5V8h8V6l-1.25-1.25L9.5 6z" color="#000" overflow="visible"/><path fill="#333" d="M4 1c-1.108 0-2 .892-2 2v5c0 1.108.892 2 2 2h8c1.108 0 2-.892 2-2V3c0-1.108-.892-2-2-2H4zm0 1h8c.554 0 1 .446 1 1v5c0 .554-.446 1-1 1H4c-.554 0-1-.446-1-1V3c0-.554.446-1 1-1z" style="paint-order:markers stroke fill"/></svg>
